X:2482
T:Harper's Frolic (Squire's Frolic)
O:england
N:As played by New Victory Band (followed by Bonny Kate) and transcribed by Marjorie Clarke (who can't find the recording and has done this form memory, so it may vary form the original).
Q:1/4=180
M:4/4
L:1/8
K:D
AG|:F2A2D2AG|F2A2D2|d2|c2d2e2c2|
dc de f2AG|F2A2D2AG|F2A2D2d2|c2d2e2c2|
[1d6AG:|[2d2A2d2e2||:f3e d2f2|g3f e2g2|f3e d2f2|
ed cB A4|f3e d2f2|g3f e2g2|f2d2e2c2|
[1d6e2:||[2d6


